T: Wounded Hussar, The
M: 6/8
L: 1/8
K: Emin
E2 A2 B2 | c4 BA | Bc dc BA | G2 A2 B2 |c2 e2 c2 | ed cB AG | E2 A2 ^G2 | A4 :|c2 e2 e2 | e4 dc | B2 d2 d2 | d4 cB |A2 a2 a2 | a2 b2 c'2 | e2 a2 ^g2 | a4 ab |c'2 b2 a2 | g2 f2 e2 | ed cB g2 | G3 A B2 |c2 e2 c2 | ed cB AG | E2 A2 ^G2 | A4 :|F2 B2 c2 | d4 cB | cd ed cB | A2 B2 c2 |d2 f2 d2 | fe dc BA | F2 B2 ^A2 | B4 :|d2 f2 f2 | f4 ed | c2 e2 e2 | e4 ag |f2 b3 b | b2 c'2 d'2 | f2 b2 ^a2 | b4 bc' |d'2 c'2 b2 | a2 g2 f2 | fe dc a2 | A4 Bc |d2 f2 d2 | fe dc BA | F2 B2 ^A2 | B4 :|D2 G2 A2 | B4 AG | AB cB AG | F2 G2 A2 |B2 d2 B2 | dc BA GF | D2 G2 ^F2 | G4 :|B2 d2 d2 | d4 cB | A2 c2 c2 | c4 BA |G2 g3 g | g2 a2 b2 | d2 g2 ^f2 | g4 ga |b2 a2 g2 | f2 e2 d2 | dc BA f2 | F3 G A2 |B2 d2 B2 | dc BA GF | D2 G2 ^F2 | G4 :|B2 E2 F2 | G4 FE | FG AG FE | D2 E2 F2 | ~
